icons/haxe.svg

<svg width="16" height="16" viewBox="0 0 16 16" fill="none" xmlns="http://www.w3.org/2000/svg">
<path d="M8 4.25013L5.19868 3.99414L2.99968 3.00011H5.49984L8 4.24899" fill="#E4BA1E"/>
<path d="M7.99989 4.25013L10.9688 3.90621L13.0004 3H10.5L7.99989 4.24899" fill="#E4BA1E"/>
<path d="M7.99989 11.7504L10.5 12.0485L13.0004 13.0004H10.5L7.99989 11.7492" fill="#E08628"/>
<path d="M8 11.7504L5.49984 12.0192L2.99968 13.0006H5.49984L8 11.7492" fill="#DC642F"/>
<path d="M4.2497 8.00033L3.88063 10.9358L2.99956 13.0006V10.5005L4.2497 7.99906" fill="#E8DD17"/>
<path d="M4.2497 8.00044L3.96855 5.31208L2.99956 3V5.50016L4.2497 7.99917" fill="#E8DD17"/>
<path d="M11.75 8.00044L12.1108 5.28281L13.0002 3V5.50016L11.75 7.99917" fill="#DB5433"/>
<path d="M11.75 8.00033L11.9939 10.76L13.0002 13.0006V10.5005L11.75 7.99906" fill="#DB5433"/>
<path d="M2.99956 3L7.99988 4.25013L7.54186 7.65537L4.2497 7.99837L2.99956 3.00274" fill="#E4A921"/>
<path d="M2.99956 13.0006L4.24959 8.00033L7.60039 8.32915L7.99988 11.7478L2.99956 12.9955" fill="#E29724"/>
<path d="M13.0004 3L11.7501 8.00031L8.47906 7.47964L7.99977 4.25002L13.0004 3.00274" fill="#DE762C"/>
<path d="M13.0004 13.0006L7.99989 11.7505L8.50845 8.38769L11.7502 8.00033L13.0004 12.9955" fill="#DC642F"/>
<path d="M7.99997 4.2501L4.24967 8.0004L7.99997 11.7506L11.7503 8.00028L7.99997 4.24896" fill="#E08628"/>
</svg>

<svg xmlns="http://www.w3.org/2000/svg" width="16" height="16" fill="none"><path fill="#E4BA1E" d="m8 4.25-2.801-.256L2.999 3h2.5L8 4.25M8 4.25l2.969-.344L13 3h-2.5L8 4.249"/><path fill="#E08628" d="m8 11.75 2.5.299L13 13h-2.5L8 11.75"/><path fill="#DC642F" d="m8 11.75-2.5.27L3 13h2.5L8 11.75"/><path fill="#E8DD17" d="m4.25 8-.37 2.936L3 13v-2.5l1.25-2.502"/><path fill="#E8DD17" d="m4.25 8-.281-2.688L2.999 3v2.5L4.25 8"/><path fill="#DB5433" d="m11.75 8 .36-2.717L13 3v2.5L11.75 8M11.75 8l.244 2.76L13 13v-2.5L11.75 8"/><path fill="#E4A921" d="m3 3 5 1.25-.458 3.405-3.292.343L3 3.003"/><path fill="#E29724" d="m3 13 1.25-5 3.35.33.4 3.418-5 1.248"/><path fill="#DE762C" d="m13 3-1.25 5-3.27-.52L8 4.25l5-1.247"/><path fill="#DC642F" d="m13 13-5-1.25.508-3.362L11.75 8 13 12.995"/><path fill="#E08628" d="M8 4.25 4.25 8 8 11.75 11.75 8 8 4.25"/></svg>
